X: 1851
T: Sally Sloane's Set Tune
B: australian traditional tunes wiki
M:6/8
L:1/8
R: Jig
Q: 3/8=100
K:D
V:1 
|:"D"DAF DAF|"A7"EAF EAF|"D"DAd cBc|f2e e3|
"D"DAF DAF|"A7"EAF EAF|"D"DAd "A7"cBc|1e2d"D"d2D:|2e2d"D"d2e||
|:"D"f3d2f|"A7"fed e2f|g3 c2e|"Em"edB "A"A3|
"D"f3d2f|"A7"fed e2f|g3 c2e|1edd "D"d2d:|2edd "D"d2F/G/||
|:"D"A3 "A7"GFG|"D"A3 "A7"GFG|"D"AFA dcd|fef fed|
"A7"G3 E2F|G3 E2F|ABA GFE|1"D"D3-D2F/G/:|2"D"D3-D2z:|
% abcbook-tune_id 6342d53a1282653cf32fe45f


% abcbook-boost 0
% abcbook-tablature 
% abcbook-transpose 
% abcbook-lastupdated 1665324388195
% abcbook-soundfonts 
% abcbook-repeats 1
% NFF Book 2014

